X:1
T:Pols fra Finnskogen
T:etter Ingunn Bjørgo
R:Finnskogspols
O:Finnskogen, Norge
Z:Jürgen Gier
M:3/8+3/8+2/8
L:1/8
K:Am
E2|A2G A2 BcA|cB2 B3 E2|A2G A2B c2|B6:|
|:d2|e3 g3 ed|B3 c3 A2|c3 B2E GE|1A3 c3:|2A6|]

